!!!COM:	Martini, Johannes
!!!CDT:	~1440///-~1497//
!!!OPR:	Missa Ma bouche rit
!!!ONM:	2
!!!OTL:	Gloria
!!!AGN:	Mass; Gloria
!!!SCT:	Mar1010b
!!!SCA:	Mar1010b
!!!voices:	4
!!!voices-OPR:	4
**kern	**kern	**kern	**kern
*staff4	*staff3	*staff2	*staff1
*Ivox	*Ivox	*Ivox	*Ivox
*I"Bassus	*I"Tenor	*I"Contratenor	*I"Superius
*I'B	*I'T	*I'Ct	*I'S
*>[A,B]	*>[A,B]	*>[A,B]	*>[A,B]
*>A	*>A	*>A	*>A
*clefF4	*clefGv2	*clefGv2	*clefG2
*k[]	*k[]	*k[]	*k[]
*M2/1	*M2/1	*M2/1	*M2/1
*met(C)	*met(C)	*met(C)	*met(C)
!!section: Et in terra pax
!!!OMD: Et in terra pax
=1-	=1-	=1-	=1-
0r	0r	0A	0a
=2	=2	=2	=2
0r	0r	1c	2.e/
.	.	.	4f/
.	.	1c	2g/
.	.	.	[2a/
=3	=3	=3	=3
0r	0r	1B	2a/]
.	.	.	2g#i/
.	.	1A	1a
=4	=4	=4	=4
0r	0r	2B\	1g
.	.	2c\	.
.	.	1A	1cc
=5	=5	=5	=5
0r	0r	1.G	2b\
.	.	.	1dd
.	.	2A/	4cc\
.	.	.	4b\
=6	=6	=6	=6
0r	0r	2.c\	2.a/
.	.	4B\	4g/
.	.	1G	1b
=7	=7	=7	=7
1r	1r	1.g	1e
1C	[1e	.	1r
.	.	2g\	.
=8	=8	=8	=8
2C/	2e\]	1g	0r
2C/	2e\	.	.
2D\	2d\	2f\	.
2E\	4c\	4e\	.
.	4B\	4d\	.
=9	=9	=9	=9
1F	1A	2.c\	0r
.	.	4d\	.
1C	2G/	2e\	.
.	2A/	2f\	.
=10	=10	=10	=10
1r	2B\	2g\	0r
.	1c	2e\	.
1G	.	1d	.
.	2B\	.	.
=11	=11	=11	=11
1A	1c	1c	1r
1B	1r	1G	1g
=12	=12	=12	=12
1c	0r	2r	2a/
.	.	1g	2g/
2B\	.	.	1b
2G\	.	[2e\	.
=13	=13	=13	=13
1A	0r	2e\]	1cc
.	.	2f\	.
2r	.	2g\	2b\
[2E\	.	2e\	2g/
=14	=14	=14	=14
2E\]	0r	1f	1a
2D\	.	.	.
2E\	.	1e	2r
2G\	.	.	[2e/
=15	=15	=15	=15
2.F\	1r	1A	2e/]
.	.	.	2d/
4E\	.	.	.
1C	1c	1G	1e
=16	=16	=16	=16
1D	1A	1d	1f
2.E\	2G/	2B\	[1g
.	[2E/	[2e\	.
4C/	.	.	.
=17	=17	=17	=17
2G\	2E/]	4e\]	2g/]
.	.	4f\	.
2A\	2C/	4e\	2e/
.	.	8d\L	.
.	.	8c\J	.
1F	1D	1B	1f
=18	=18	=18	=18
1G	1C	1c	1e
2D\	1r	1f	1a
[2F\	.	.	.
=19	=19	=19	=19
2F\]	0r	2d\	2f/
2E\	.	2.e\	1g
1A	.	.	.
.	.	4d\	.
.	.	[2c\	2c/
=20	=20	=20	=20
1G	0r	2c\]	1d
.	.	2B\	.
[1C	.	1c	1c
=21	=21	=21	=21
1C]	1e	1c	2r
.	.	.	2g/
1r	2c\	2A/	2a/
.	[2d\	2G/	[2b\
=22	=22	=22	=22
0r	2d\]	1d	4b\]
.	.	.	4cc\
.	2B\	.	1dd
.	1A	2e\	.
.	.	2c\	[2cc\
=23	=23	=23	=23
1r	1G	1d	2cc\]
.	.	.	2b\
[1C	2r	1c	1cc
.	2G/	.	.
=24	=24	=24	=24
2C/]	2c\	2e\	2cc\
2C/	2d\	2f\	2cc\
1C	1e	1g	1cc
=25	=25	=25	=25
1.G	1.d	1.g	1.b
2G\	2d\	2g\	2b\
=26	=26	=26	=26
1G	1d	1g	1b
1A	1c	1e	1a
=27	=27	=27	=27
1d	1B	2d\	1g
.	.	2g\	.
2e\	[1A	2a\	1cc
[2c\	.	[2f\	.
=28	=28	=28	=28
4c\]	1A]	4f\]	1a
4B\	.	4e\	.
2c\	.	2f\	.
1d	1G	[1g	[1b
=29	=29	=29	=29
1G	1B	2g\]	2b\]
.	.	2e\	2g/
1C	1c	1e	1g
=30	=30	=30	=30
2E\	1c	2g\	2g/
1F	.	2f\	1a
.	2c\	2f\	.
2G\	2B\	2e\	[2g/
=31	=31	=31	=31
1D	1A	1d	2g/]
.	.	.	2f#i/
1E	1G	2r	1g
.	.	2g\	.
=32	=32	=32	=32
2E\	2r	2g\	0r
2E\	1c	2g\	.
2.F\	.	1a	.
.	2d\	.	.
4E\	.	.	.
=33	=33	=33	=33
1C	1e	1g	0r
2.F\	2c\	1r	.
.	[2f\	.	.
4G\	.	.	.
=34	=34	=34	=34
2A\	2f\]	0r	0r
2.G\	2e\	.	.
.	2d\	.	.
4F\	.	.	.
2G\	[2e\	.	.
=35	=35	=35	=35
2E\	4e\]	0r	0r
.	4d\	.	.
2F\	1c	.	.
1D	.	.	.
.	2B\	.	.
=36	=36	=36	=36
1C	1c	1r	1r
1C	1r	[1e	1g
=37	=37	=37	=37
1C	0r	2e\]	2c/
.	.	2e\	1g
1C	.	1e	.
.	.	.	2a/
=38	=38	=38	=38
2C/	0r	1e	2g/
2C/	.	.	1cc
2G\	.	1d	.
2G\	.	.	2b\
=39	=39	=39	=39
1C	0r	1c	1cc
[1G	.	[1d	2b\
.	.	.	2cc\
=40	=40	=40	=40
1G]	1B	2d\]	1dd
.	.	2e\	.
2A\	1c	1f	2cc\
[2F\	.	.	[2a/
=41	=41	=41	=41
2F\]	2d\	0r	2a/]
2G\	1d	.	4g/
.	.	.	4f/
1A	.	.	1e
.	2c#i\	.	.
=42	=42	=42	=42
1D	1d	0r	1f
1A	2r	.	1e
.	2c\	.	.
=43	=43	=43	=43
2B-i\	2d\	0r	0r
2.A\	2f\	.	.
.	2e\	.	.
4G\	.	.	.
2F\	[2d\	.	.
=44	=44	=44	=44
1E	2d\]	1r	1r
.	2c#i\	.	.
1D	1d	1f	2r
.	.	.	2a/
=45	=45	=45	=45
2G\	0r	2g\	2b\
2F\	.	2a\	2cc\
1B-i	.	1d	2dd\
.	.	.	[2dd\
=46	=46	=46	=46
1A	1r	1e	2dd\]
.	.	.	2cc\
1D	[1d	1d	2.dd\
.	.	.	4cc\
=47	=47	=47	=47
0r	0d_	2G/	4b\
.	.	.	4a/
.	.	2F/	1a
.	.	1B-i	.
.	.	.	2g/
=48	=48	=48	=48
1D	1d]	2A/	2f/
.	.	2r	1b-i
1F	2c\	2A/	.
.	2A/	[2d\	[2a/
=49	=49	=49	=49
1G	1B	2d\]	2a/]
.	.	2e\	2g/
1D	1A	2.f\	2.a/
.	.	4e\	4g/
=50	=50	=50	=50
1A	1r	1c	1e
[1G	2.E/	1r	1r
.	4F/	.	.
=51	=51	=51	=51
2G\]	2G/	0r	0r
2F\	2A/	.	.
2G\	2B\	.	.
2E\	[2c\	.	.
=52	=52	=52	=52
1D	2c\]	1r	1r
.	2B\	.	.
2.C/	2c\	[1g	2.e/
.	[2e\	.	.
4D\	.	.	4f/
=53	=53	=53	=53
2E\	2e\]	2g\]	2g/
2F\	1d	2f\	2a/
2G\	.	2d\	2b\
2A\	2c\	2f\	[2cc\
=54	=54	=54	=54
1G	1d	1g	2cc\]
.	.	.	2b\
2A\	2c\	2e\	2cc\
2B\	2A/	[2d\	[2dd\
=55	=55	=55	=55
1G	1B	2d\]	2dd\]
.	.	2e\	4cc\
.	.	.	4b\
1F	[1c	1f	1a
=56	=56	=56	=56
1E	1c]	0r	1g
1D	2d\	.	2r
.	4c\	.	[2a/
.	4B\	.	.
=57	=57	=57	=57
1F	1A	0c	2a/]
.	.	.	4g/
.	.	.	4f/
1C	2G/	.	1e
.	2A/	.	.
=58	=58	=58	=58
1G	2B\	1B	2d/
.	2G/	.	1e
1F	2A/	1A	.
.	2F/	.	[2d/
=59	=59	=59	=59
1G	1E	1e	2d/]
.	.	.	2c/
1A	1D	2f\	2d/
.	.	[2d\	2f/
=60	=60	=60	=60
2B\	2r	2d\]	2g/
2A\	2F/	2c\	2a/
2G\	2G/	2g\	2b\
[2F\	[2A/	2c\	[2cc\
=61	=61	=61	=61
2F\]	2A/]	2f\	2cc\]
2G\	2B\	2d\	2b\
2C/	1c	2e\	2g/
[2F\	.	2A/	[2a/
=62	=62	=62	=62
2F\]	2A/	2r	2a/]
2E\	2B\	1.e	2g/
1C	2c\	.	2e/
.	[2A/	.	[2f/
=63	=63	=63	=63
2D\	2A/]	2d\	2f/]
1E	2G/	1B	2.g/
.	1E	.	.
.	.	.	4f/
2C/	.	2c\	[2e/
=64	=64	=64	=64
1D	1F	2.A/	2e/]
.	.	.	2d/
.	.	4G/	.
2r	[1El	[1Bl	[1el
[2G\	.	.	.
=65	=65	=65	=65
2G\]	0E]	0B]	0e]
2E\	.	.	.
1El	.	.	.
!!LO:LB:i:g=z
=66||	=66||	=66||	=66||
*>B	*>B	*>B	*>B
*clefF4	*clefGv2	*clefGv2	*clefG2
*k[]	*k[]	*k[]	*k[]
*M2/1	*M2/1	*M2/1	*M2/1
*met(C|)	*met(C|)	*met(C|)	*met(C|)
!!section: Qui tollis
!!!OMD: Qui tollis
0r	0r	0r	0b
=67	=67	=67	=67
0r	0r	0e	1cc
.	.	.	1cc
=68	=68	=68	=68
0r	0r	1f	1.dd
.	.	1f	.
.	.	.	2g/
=69	=69	=69	=69
0E	0r	1.g	1g
.	.	.	1r
.	.	2c\	.
=70	=70	=70	=70
1F	0r	1c	1r
1F	.	1f	1a
=71	=71	=71	=71
0G	0B	1d	1b
.	.	[1g	[1dd
=72	=72	=72	=72
0A	1c	2g\]	1dd]
.	.	4f#i\	.
.	.	4e\	.
.	1c	1f#i	1cc
=73	=73	=73	=73
0G	1.d	0g	1.b
.	4c\	.	2a/
.	4B\	.	.
=74	=74	=74	=74
0r	0A	1.e	1.cc
.	.	[2f\	[2a/
=75	=75	=75	=75
0r	0A	4f\]	2a/]
.	.	4e\	.
.	.	1d	2f/
.	.	.	1e
.	.	2c#i\	.
=76	=76	=76	=76
1A	1D	0d	0d
2G\	[1G	.	.
[2B\	.	.	.
=77	=77	=77	=77
4B\]	1G]	0r	0r
4A\	.	.	.
1G	.	.	.
.	1A	.	.
2F#i\	.	.	.
=78	=78	=78	=78
1G	1B	1r	1d
[1E	1B	1e	1g
=79	=79	=79	=79
1E]	1.c	1g	1g
1F	.	1f	1a
.	4B\	.	.
.	4A/	.	.
=80	=80	=80	=80
1E	0G	1g	1b
1G	.	1d	1b
=81	=81	=81	=81
1.F	1.A	1f	1.cc
.	.	1f	.
2E\	2B\	.	4b\
.	.	.	4a/
=82	=82	=82	=82
0C	0c	0e	0g
=83	=83	=83	=83
0F	1r	0f	0a
.	[1c	.	.
=84	=84	=84	=84
1F	2c\]	1f	1a
.	2c\	.	.
[1F	1c	[1f	[1a
=85	=85	=85	=85
1F]	1c	1f]	1a]
1A	[1F	[1f	[1a
=86	=86	=86	=86
1.c	2F/]	2f\]	2a/]
.	2F/	2f\	2a/
.	1F	1f	1a
2c\	.	.	.
=87	=87	=87	=87
1c	1F	1f	1a
1c	1C	1e	2a/
.	.	.	[2g/
=88	=88	=88	=88
2B\	0r	2d\	4g/]
.	.	.	4f/
2c\	.	1c	2e/
1G	.	.	1d
.	.	2B\	.
=89	=89	=89	=89
1C	1c	1c	1c
1G	1B	1r	1r
=90	=90	=90	=90
2A\	2c\	0r	0r
2F\	1d	.	.
1G	.	.	.
.	2B\	.	.
=91	=91	=91	=91
2E\	2c\	0r	0r
2F\	1A	.	.
2D\	.	.	.
[2G\	2B\	.	.
=92	=92	=92	=92
2G\]	2G/	0r	0r
2E\	1c	.	.
1D	.	.	.
.	2B\	.	.
=93	=93	=93	=93
1C	1c	0r	2.e/
.	.	.	4d/
1r	1A	.	2e/
.	.	.	[2f/
=94	=94	=94	=94
0r	2r	0r	4f/]
.	.	.	4e/
.	2A/	.	2f/
.	2G/	.	2.g/
.	[2c\	.	.
.	.	.	4f/
=95	=95	=95	=95
0r	4c\]	0r	2g/
.	4B\	.	.
.	2c\	.	2a/
.	2d\	.	2f/
.	2B\	.	2g/
=96	=96	=96	=96
0r	2c\	0r	2a/
.	2d\	.	1b
.	1e	.	.
.	.	.	[2e/
=97	=97	=97	=97
0r	1.A	0r	2e/]
.	.	.	1cc
.	2G/	.	[2b\
=98	=98	=98	=98
0r	2A/	0r	2b\]
.	2c\	.	1a
.	1B	.	.
.	.	.	2g#i/
=99	=99	=99	=99
1A	0r	1r	1a
1c	.	1e	1r
=100	=100	=100	=100
1d	0r	2f\	0r
.	.	1a	.
2A\	.	.	.
[2c\	.	2g\	.
=101	=101	=101	=101
2c\]	0r	2e\	0r
4B\	.	1g	.
4A\	.	.	.
2G\	.	.	.
2A\	.	2f\	.
=102	=102	=102	=102
2B\	0r	2d\	0r
1G	.	1e	.
2F\	.	[2d\	.
=103	=103	=103	=103
2G\	0r	2d\]	0r
2E\	.	1c	.
1D	.	.	.
.	.	2B\	.
=104	=104	=104	=104
1C	0r	1c	2.c/
.	.	.	4d/
2.C/	.	1r	2e/
.	.	.	2f/
4D\	.	.	.
=105	=105	=105	=105
2E\	0r	0r	2g/
2F\	.	.	2a/
2G\	.	.	2b\
[2A\	.	.	[2cc\
=106	=106	=106	=106
2A\]	0r	0r	2cc\]
4G\	.	.	4b\
4F\	.	.	4a/
2E\	.	.	2g/
[2c\	.	.	[2a/
=107	=107	=107	=107
2c\]	0r	0r	2a/]
4B\	.	.	2g/
4A\	.	.	.
2G\	.	.	2e/
2A\	.	.	2f/
=108	=108	=108	=108
1E	0r	0r	2g/
.	.	.	1e
1F	.	.	.
.	.	.	2d/
=109	=109	=109	=109
2E\	1r	0r	1e
1C	.	.	.
.	1c	.	1r
2E\	.	.	.
=110	=110	=110	=110
2D\	1B	0r	0r
1G	.	.	.
.	1A	.	.
2F\	.	.	.
=111	=111	=111	=111
2G\	2G/	0r	0r
2E\	1c	.	.
2.F\	.	.	.
.	2d\	.	.
4E\	.	.	.
=112	=112	=112	=112
1C	2.e\	0r	0r
.	4d\	.	.
2.D\	2B\	.	.
.	[2d\	.	.
4E\	.	.	.
=113	=113	=113	=113
4F\	2d\]	0r	0r
4G\	.	.	.
2E\	1c	.	.
2F\	.	.	.
2G\	2B\	.	.
=114	=114	=114	=114
2A\	2c\	0r	0r
1G	2B\	.	.
.	1A	.	.
2F#i\	.	.	.
=115	=115	=115	=115
1G	0r	1G	1g
1r	.	1c	1a
=116	=116	=116	=116
0r	0r	2d\	1b
.	.	1e	.
.	.	.	2.cc\
.	.	2f\	.
.	.	.	4b\
=117	=117	=117	=117
0r	0r	2g\	2g/
.	.	4f\	1dd
.	.	4e\	.
.	.	2d\	.
.	.	[2g\	[2ee\
=118	=118	=118	=118
0r	0r	4g\]	4ee\]
.	.	4e\	4dd\
.	.	2f\	1cc
.	.	1d	.
.	.	.	2b\
=119	=119	=119	=119
0c	0A	1r	0cc
.	.	[1a	.
=120	=120	=120	=120
1c	1A	2a\]	1r
.	.	2g\	.
1c	1A	2e\	1cc
.	.	[2a\	.
=121	=121	=121	=121
0c	0A	2a\]	1cc
.	.	1g	.
.	.	.	1cc
.	.	2f#i\	.
=122	=122	=122	=122
0d	0G	0g	0b
=123	=123	=123	=123
1r	1A	1f	1cc
1G	1G	1g	2b\
.	.	.	[2dd\
=124	=124	=124	=124
1A	1c	1e	2dd\]
.	.	.	4cc\
.	.	.	4b\
1F	1d	1A	1a
=125	=125	=125	=125
[0E	1e	1B	1g
.	2e\	2.c\	2r
.	[2e\	.	[2c/
.	.	4B\	.
=126	=126	=126	=126
0E]	2e\]	1G	4c/]
.	.	.	4d/
.	4d\	.	4e/
.	4c\	.	4f/
.	2B\	2r	2g/
.	2c\	2e\	2a/
=127	=127	=127	=127
1r	2d\	2f\	2b\
.	2.e\	2.g\	2.cc\
2.C/	.	.	.
.	4d\	4f\	4b\
.	2c\	[2e\	2a/
4D\	.	.	.
=128	=128	=128	=128
2E\	2B\	2e\]	2g/
2F\	2A/	2d\	1a
1E	1B	1e	.
.	.	.	2g#i/
=129	=129	=129	=129
0AAl	0Al	0cl	0al
==	==	==	==
*-	*-	*-	*-
!!!RDF**kern: l=long note in original notation
!!!RDF**kern: i=editorial accidental
!!!ENC:	Chris Gage 10-22-2014
!!!END:	2015/03/07/
!!!EED:	Jesse Rodin
!!!EEV:	2015/03/09/
!!!ONB:	Translated from MusicXML and edited on 2015/03/09/ by Craig Sapp
!!muse2ps: T^@{OPR}^u^@{ONM}{. }@{OTL}^C^@{COM}^i2I150v85,85,85,150Q16
